projects/plugins/boost/app/assets/src/images/footer-icon.svg

<svg fill="none" height="16" viewBox="0 0 16 16" width="16" xmlns="http://www.w3.org/2000/svg"><path d="m17 0c-9.37595 0-17 7.62405-17 17 0 9.376 7.62405 17 17 17 9.376 0 17-7.624 17-17 0-9.37595-7.624-17-17-17zm-.876 19.8225h-8.46751l8.46751-16.4809zm1.7195 10.8035v-16.481h8.4676z" fill="#000" fill-opacity=".7" transform="scale(.4705883)"/></svg>

<svg xmlns="http://www.w3.org/2000/svg" width="16" height="16" viewBox="0 0 16 16" fill="none">
<g transform="matrix(0.4705883 0 0 0.4705883 0 0)">
    <path d="M17 0C 7.62405 0 0 7.62405 0 17C 0 26.376 7.62405 34 17 34C 26.376 34 34 26.376 34 17C 34 7.62405 26.376 0 17 0zM16.124 19.8225L7.65649 19.8225L16.124 3.3416L16.124 19.8225zM17.8435 30.626L17.8435 14.145L26.3111 14.145L17.8435 30.626z" fill="#000000" fill-opacity="0.7" />
</g>
</svg>
